X: 42439
T: Westering Home
R: waltz
M: 3/4
K: Dmajor
|:A3 B A2|A2 F2 A2|d2 d2 e2|f6|g3 f e2|f3 e d2|B2 B3 B|A6|
A3 B A2|A2 F2 A2|d2 d2 e2|f4 g2|a3 f d2|f4 e2|d6|d6|
a3 f d2|d3 e f2|e3 f e2|A6|A2 d2 d2|d3 e f2|g3 f g2|e6|
a3 f d2|d3 e f2|e3 f e2|A4 g2|f3 e d2|f4 e2|d6|d6:|

